!!!!SEGMENT: pl-wnifc--6803-n--001-005_tymolski-fabian--mazury-na-peronie-op-142-zakonczenie.krn
!!!cenid: 18xx:3996
!!!COM: Tymolski, Fabian
!!!COM-rismID: pe30006748
!!!CDT: 1828/01/14-1885
!!!CNT:
!!!OPR: Mazury „Na Peronie” op. 142
!!!OTL: Zakończenie
!!!OMV: 005
!!!PDT:
!!!AGN:
!!!YEC: Copyright 2022 Narodowy Instytut Fryderyka Chopina (https://polishscores.org)
!!!YEM: License CC-BY-4.0 (https://creativecommons.org/licenses/by/4.0)
!!!SMS-siglum: PL-Wnifc
!!!SMS-shelfmark: 6803/n
!!!SMS-shelfwork: 001-005 M
!!!SMS-variant:
!!!SMS-altvar:
!!!NIFC-rismSourceID: 1001158046
!!!NIFC-rismChildID: 1001158239
!!!NIFC-islandoraID: nifc:213566
!!!URL-pdf-islandora: https://repozytorium.nifc.pl/islandora/object/nifc%3A213566/datastream/PDF/view
!!!URL-scan: https://polish.musicsources.pl/pl/lokalizacje/galeria/druki-muzyczne/16923 @EN{Scan on Polish Music Sources Website} @PL{Skany w portalu Dziedzictwo Muzyki Polskiej w otwartym dostępie}
!!!IIIF:
!!!ONB-nifc: UWAGA: części: 1. Wstęp, 2. Mazur No. 1, 3. Mazur No. 2, 4. Mazur No. 3, 5. Zakończenie
!!!AIN: 2 piano
!!!key: D
**kern	**kern	**dynam
*part2	*part1	*
*staff2	*staff1	*
*I"[Piano]	*I"[Piano]	*
*I'pf	*I'pf	*
*ICklav	*ICklav	*
*Ipiano	*Ipiano	*
*clefF4	*clefG2	*
*k[f#c#]	*k[f#c#]	*
*D:	*D:	*
*M3/8	*M3/8	*
=1	=1	=1
!LO:TX:b:t=[coda]	!LO:TX:t=[coda]	!
8d\ 8f#	16dd\LL	ff
.	16ee\JJ	.
8D\L 8F# 8A 8d	8ff#\L	.
8D\J 8F# 8A 8d	8gg\J	.
=2	=2	=2
8D\L 8F# 8A 8d	(4aa^\	.
8D\ 8F# 8A 8d	.	.
!	!LO:TX:b:i:t=con tutta forza	!
8D\J 8F# 8A 8d	8ff#\)	.
=3	=3	=3
8D\L 8G 8B 8d	16bb\LL	.
.	16aa\JJ	.
8D\ 8G 8B 8d	8gg\L	.
8D\J 8G 8B 8d	8bb\J	.
=4	=4	=4
8D\L 8F# 8A 8d	(4aa^\	.
8D\ 8F# 8A 8d	.	.
8D\J 8F# 8A 8d	8ff#\)	.
!!LO:LB:g=original	!	!
=5	=5	=5
8D\L 8G 8A 8c#	16gg\LL	.
.	16ff#\JJ	.
8D\ 8G 8A 8c#	8ee\L	.
8D\J 8G 8A 8c#	8aa\J	.
=6	=6	=6
8D\L 8F# 8A 8d	8ff#\L	.
8D\ 8F# 8A 8d	8dd\	.
8D\J 8F# 8A 8d	8b\J	.
=7	=7	=7
8D\L 8G 8A 8c#	16a/LL	.
.	16b/JJ	.
8D\ 8G 8A 8c#	8cc#\L	.
8D\J 8G 8A 8c#	8a\J	.
=8	=8	=8
8D\L 8F# 8A 8d	16dd\LL	.
.	16ee\JJ	.
8D\ 8F# 8A 8d	4ff#\	.
8D\J 8F# 8A 8d	.	.
=9	=9	=9
8D\L 8G 8A 8c#	16gg\LL	.
.	16ff#\JJ	.
8D\ 8G 8A 8c#	8ee\L	.
8D\J 8G 8A 8c#	8a\J 8aa	.
=10	=10	=10
8D\L 8F# 8A 8d	8ff#\L	.
8D\ 8F# 8A 8d	8dd\	.
8D\J 8F# 8A 8d	8b\J	.
!!LO:LB:g=original	!	!
=11	=11	=11
8D\L 8G 8A 8c#	16a\LL	.
.	16b\JJ	.
8D\ 8G 8A 8c#	8cc#\L	.
8D\J 8G 8A 8c#	8a\J	.
=12	=12	=12
8D\L 8F# 8A 8d	16dd\LL	.
.	16ff#\JJ	.
8D\ 8F# 8A 8d	4aa\	.
8D\J 8F# 8A 8d	.	.
=13	=13	=13
8G\L 8B 8d	8b^\L 8bb	.
8G\ 8B 8d	8b^\ 8bb	.
8A\J 8e 8g	8cc#\J 8ccc#	.
=14	=14	=14
8d\ 8f#	8dd\ 8ddd	.
8r	8r	.
8r	8r	.
=15	=15	=15
8A\ 8c# 8e	8a\ 8cc# 8ee 8aa	.
8r	8r	.
!LO:N:vis=8.	!LO:N:vis=8.	!
16.r	16.r	.
!LO:N:vis=16	!LO:N:vis=16	!
32D\ 32F# 32A 32d	32f#/ 32a 32dd	.
=16	=16	=16
4.D;\ 4.F# 4.A 4.d	4.f#;/ 4.a 4.dd	.
==	==	==
*-	*-	*-
!!!system-decoration: {(s1,s2)}
!!!ENC: Filip Voros
!!!END: 2022-08-03
!!!ENC: Jan Barakat
!!!END: 2022-09-08
